X: 3111
Q:"Strathspey."
M: C
L: 1/8
K: A
uE |\
vC<uE vE>uA vF>vA uE2 | C<E E>F A>B (c<e) |\
d |\
(c<e) (ef/g/) a>e c2 |
(c<e) (ef/g/) a>e (f<a) |\
[1 (c<e) (ef/g/) a>e c2 | (3dcB (3cBA G<B B :|\
[2 e<c a>g f>ed>c | (3dcB (3cBA G<B B |]


